#ifndef USERPREFS_HAS_SPLASH
#define icon_width 75
#define icon_height 42
static uint8_t icon_bits[] = {
    0x00, 0x00, 0x00, 0x00, 0x50, 0x00, 0x00, 0x00, 0x00, 0x00, 0x00, 0x00,
    0x00, 0x00, 0x50, 0x00, 0x00, 0x00, 0x00, 0x00, 0x00, 0x00, 0x00, 0x00,
    0xA8, 0x00, 0x00, 0x00, 0x00, 0x00, 0x00, 0x00, 0x00, 0x00, 0x6C, 0x01,
    0x00, 0x00, 0x00, 0x00, 0x00, 0x00, 0x00, 0x00, 0x51, 0x02, 0x00, 0x00,
    0x00, 0x00, 0x00, 0x00, 0x00, 0x80, 0x88, 0x0C, 0x00, 0x00, 0x00, 0x00,
    0x00, 0x00, 0x00, 0x30, 0x04, 0x21, 0x00, 0x00, 0x00, 0x00, 0x00, 0x00,
    0x00, 0x08, 0x04, 0xC1, 0x00, 0x00, 0x00, 0x00, 0x00, 0x00, 0x00, 0x06,
    0x02, 0x02, 0x03, 0x00, 0x00, 0x00, 0x00, 0x00, 0x98, 0x00, 0x00, 0x00,
    0x68, 0x00, 0x00, 0x00, 0x00, 0x00, 0x34, 0x00, 0x01, 0x04, 0xD0, 0x01,
    0x00, 0x00, 0x00, 0x00, 0x5C, 0x00, 0x01, 0x04, 0x50, 0x01, 0x00, 0x00,
    0x00, 0x00, 0xA4, 0x80, 0x50, 0x08, 0xB4, 0x01, 0x00, 0x00, 0x00, 0x00,
    0x18, 0x45, 0xAC, 0x11, 0x41, 0x00, 0x00, 0x00, 0x00, 0x00, 0x10, 0x58,
    0x03, 0xD7, 0x40, 0x00, 0x00, 0x00, 0x00, 0x00, 0x00, 0x60, 0x20, 0x50,
    0x40, 0x00, 0x00, 0x00, 0x00, 0x00, 0x10, 0x10, 0x78, 0x10, 0x40, 0x00,
    0x00, 0x00, 0x00, 0x00, 0x10, 0x50, 0xFC, 0x21, 0x00, 0x00, 0x00, 0x00,
    0x00, 0x00, 0x10, 0x10, 0xFE, 0x53, 0x40, 0x00, 0x00, 0x00, 0x00, 0x00,
    0x10, 0x50, 0xFE, 0x43, 0x40, 0x00, 0x00, 0x00, 0x00, 0x00, 0x10, 0x20,
    0xFE, 0x12, 0x40, 0x00, 0x00, 0x00, 0x00, 0x00, 0x10, 0x10, 0x32, 0x61,
    0x00, 0x00, 0x00, 0x00, 0x00, 0x00, 0x10, 0x30, 0x56, 0x03, 0x40, 0x00,
    0x00, 0x00, 0x00, 0x00, 0x10, 0x20, 0xDE, 0x51, 0x40, 0x00, 0x00, 0x00,
    0x00, 0x00, 0x10, 0x10, 0xF8, 0x50, 0x00, 0x00, 0x00, 0x00, 0x00, 0x00,
    0x10, 0x68, 0x30, 0xA8, 0x40, 0x00, 0x00, 0x00, 0x00, 0x00, 0x10, 0xD4,
    0x40, 0x2C, 0x41, 0x00, 0x00, 0x00, 0x00, 0x00, 0x10, 0x81, 0x01, 0x12,
    0x44, 0x00, 0x00, 0x00, 0x00, 0x00, 0x6C, 0x00, 0x06, 0x05, 0xD8, 0x00,
    0x00, 0x00, 0x00, 0x00, 0x54, 0x80, 0x8C, 0x05, 0x20, 0x01, 0x00, 0x00,
    0x00, 0x00, 0x34, 0x00, 0x71, 0x00, 0xD0, 0x01, 0x00, 0x00, 0x00, 0x00,
    0xD4, 0x00, 0x20, 0x02, 0xB4, 0x00, 0x00, 0x00, 0x00, 0x00, 0x28, 0x03,
    0x02, 0x02, 0xAA, 0x00, 0x00, 0x00, 0x00, 0x00, 0x80, 0x0A, 0x04, 0xC1,
    0x06, 0x00, 0x00, 0x00, 0x00, 0x00, 0x00, 0x1A, 0x08, 0x20, 0x01, 0x00,
    0x00, 0x00, 0x00, 0x00, 0x00, 0xE8, 0x88, 0xD8, 0x00, 0x00, 0x00, 0x00,
    0x00, 0x00, 0x00, 0x40, 0x43, 0x16, 0x00, 0x00, 0x00, 0x00, 0x00, 0x00,
    0x00, 0x80, 0x7C, 0x05, 0x00, 0x00, 0x00, 0x00, 0x00, 0x00, 0x00, 0x00,
    0xCA, 0x02, 0x00, 0x00, 0x00, 0x00, 0x00, 0x00, 0x00, 0x00, 0xA8, 0x00,
    0x00, 0x00, 0x00, 0x00, 0x00, 0x00, 0x00, 0x00, 0x58, 0x00, 0x00, 0x00,
    0x00, 0x00, 0x00, 0x00, 0x00, 0x00, 0x20, 0x00, 0x00, 0x00, 0x00, 0x00,};
#endif